X:1
T:Title
%%score ( 1 2 ) 3
L:1/8
Q:1/4=110
M:9/8
K:Bb
V:1 treble nm="Grand Piano, Soprano"
V:2 treble 
V:3 bass nm="Choir Pad, Waiting (Gortner)"
V:1
 [DF]2 [DB] [Fd]3- [Fd]2 [FB] | cB[EG] [DF]3 [B,D]3 | [DF]2 [EA] [Fc]3- [Fc]2 [DB] | %3
w: By~Curtis~V.~Strickland * * * *|||
 [EA]2 [DB] [Fc]6 | [DF]2 [DB] [Fd]3- [Fd]2 [FB] | [Ec]2 [EB] [EA]3 [EG]3 | %6
w: |||
 [DF]2 [EA] [Fc]3- [Fc]2 [FB] | [EA]2 [Ec] [DB]6 | [Ec]2 [E=B] [Ec]3- [Ec]2 [Fd] | %9
w: |||
 [Fe]2 [Fd] [Fe]3 [Fc]3 | [DB]2 [DA] [DB]3- [DB]2 [Ec] | [Fd]2 [FB] [Fc]6 | %12
w: |||
 [DF]2 [DB] [Fd]3- [Fd]2 [FB] | [Ec]2 [EB] [EA]3 [EG]3 | [DF]2 [EA] [Fc]3- [Fc]2 [FB] | %15
w: |||
 [EA]2 [Ec] [DB]6 |[M:12/8] F2 F e3 e2- [Ee] [Ee]2 [Ec] | B2 c d3 d2- [Fd] D2 D | z6 G3 z3 | %19
w: ||||
 cBG F3 D2 D [DF]3 | [DF]2 [DB] [Fd]6- [Fd]2 [FB] | [Ec]2 [EB] [EA]3 [EG]6 | %22
w: |||
 [DF]2 [EA] [Fc]6- [Fc]2 [FB] | [EA]2 [Ec] [DB]6- [DB]3/2 z/ z |] %24
w: ||
V:2
 x9 | .E3 z3 z3 | x9 | x9 | x9 | x9 | x9 | x9 | x9 | x9 | x9 | x9 | x9 | x9 | x9 | x9 | %16
[M:12/8] z6 .E3 z3 | z6 .F3 B3 | F2 F G3 E2 E [EG]2 [EB] | z6 F3 z3 | x12 | x12 | x12 | x12 |] %24
V:3
 [B,,B,]2 [B,,F,] [B,,B,]3- [B,,B,]2 [D,B,] | [E,B,]2 [E,B,] [B,,B,]3 [B,,F,]3 | %2
 [B,,B,]2 [F,A,] [F,A,]3- [F,A,]2 [F,B,] | [F,C]2 [F,B,] [F,A,]6 | %4
 [B,,B,]2 [B,,F,] [B,,B,]3- [B,,B,]2 [D,B,] | [E,B,]2 [E,B,] [E,B,]3 [E,B,]3 | %6
 [B,,B,]2 [F,A,] [F,A,]3- [F,A,]2 [D,B,] | [F,C]2 [F,A,] [B,,B,]6 | %8
 [F,A,]2 [F,A,] [F,A,]3- [F,A,]2 [F,A,] | [F,A,]2 [F,A,] [F,A,]3 [F,A,]3 | %10
 [B,,F,]2 [B,,F,] [B,,F,]3- [B,,F,]2 [B,,B,] | [B,,B,]2 [B,,B,] [F,A,]6 | %12
 [B,,B,]2 [B,,F,] [B,,B,]3- [B,,B,]2 [D,B,] | [E,B,]2 [E,B,] [E,B,]3 [E,B,]3 | %14
 [B,,B,]2 [F,C] [F,A,]3- [F,A,]2 [D,B,] | [F,C]2 [F,A,] [B,,B,]6 | %16
[M:12/8] z6 [F,A,]2 [F,A,] [F,A,]2 [F,A,] | z6 [B,,B,]2 [B,,B,] [B,,B,]2 [B,,B,] | %18
 z6 [E,B,]2 [E,B,] [E,B,]2 [E,B,] | z6 [B,,B,]2 [B,,B,] [B,,B,]3 | %20
 [B,,B,]2 [B,,B,] [B,,B,]6- [B,,B,]2 [D,B,] | [E,G,]2 [E,G,] [E,G,]3 [E,G,]6 | %22
 [F,B,]2 [F,C] [F,A,]6- [F,A,]2 [D,B,] | [F,C]2 [F,A,] [B,,B,]6- [B,,B,]3/2 z/ z |] %24

